packages/core/src/svgs/steem.svg

<svg width="24" height="24" viewBox="0 0 24 24" fill="none" xmlns="http://www.w3.org/2000/svg">
<g clip-path="url(#clip0_31_19356)">
<path d="M0 0H24V24H0V0Z" fill="#171FC9"/>
<path d="M7.10911 6.21305C7.27282 6.24305 6.87082 7.30763 7.09411 8.52177C7.28782 9.56448 9.70111 13.6162 9.60425 15.0018C9.52968 15.8803 7.54111 17.9212 7.33282 17.7875C7.10911 17.7202 7.93582 16.3346 7.63068 15.1805C7.26554 13.8249 5.14282 10.3393 5.14282 8.79734C5.14282 7.67277 6.96768 6.13848 7.10911 6.21305ZM11.6524 4.61877C11.8611 4.65648 11.3545 6.01163 11.6374 7.56863C11.8834 8.90148 14.967 14.0632 14.8401 15.8358C14.7433 16.9458 12.2108 19.5451 11.943 19.3736C11.6524 19.2991 12.7101 17.5265 12.3154 16.0518C11.8684 14.3315 9.14997 9.87734 9.14997 7.91834C9.14997 6.47363 11.4737 4.52963 11.6597 4.6192L11.6524 4.61877ZM16.3521 6.21305C16.5158 6.24305 16.1138 7.30763 16.3371 8.52177C16.5308 9.56448 18.9441 13.6162 18.8545 15.0018C18.7804 15.8803 16.7914 17.9212 16.5754 17.7875C16.3525 17.7202 17.1788 16.3346 16.8737 15.1805C16.5158 13.8249 14.3858 10.3393 14.3858 8.79734C14.3858 7.67277 16.2107 6.13848 16.3521 6.21305Z" fill="white"/>
</g>
<defs>
<clipPath id="clip0_31_19356">
<rect width="24" height="24" fill="white"/>
</clipPath>
</defs>
</svg>

<svg xmlns="http://www.w3.org/2000/svg" width="24" height="24" fill="none" viewBox="0 0 24 24"><g clip-path="url(#a)"><path fill="#171FC9" d="M0 0h24v24H0z"/><path fill="#fff" d="M7.11 6.213c.163.03-.24 1.095-.016 2.309.194 1.042 2.607 5.094 2.51 6.48-.074.878-2.063 2.92-2.271 2.786-.224-.068.603-1.453.298-2.607-.365-1.356-2.488-4.842-2.488-6.384 0-1.124 1.825-2.659 1.966-2.584m4.542-1.594c.21.037-.297 1.393-.015 2.95.246 1.332 3.33 6.494 3.203 8.267-.097 1.11-2.63 3.71-2.897 3.538-.29-.075.767-1.848.372-3.322-.447-1.72-3.165-6.175-3.165-8.134 0-1.444 2.324-3.388 2.51-3.299zm4.7 1.594c.164.03-.238 1.095-.015 2.309.194 1.042 2.607 5.094 2.518 6.48-.075.878-2.064 2.92-2.28 2.786-.223-.068.604-1.453.299-2.607-.358-1.356-2.488-4.842-2.488-6.384 0-1.124 1.825-2.659 1.966-2.584"/></g><defs><clipPath id="a"><path fill="#fff" d="M0 0h24v24H0z"/></clipPath></defs></svg>
